!!!OTL: Good-Night
!!!COM: Wood, Leo
!!!COM: Bibo, Irving
!!!COM: Conrad, Con
!!!LAR: Frey, Hugo
!! "Good-Night" by Leo Wood, Irving Bibo and Con Conrad
!! from "Barbershop Memories" compiled and arranged by Hugo Frey
!! copyright 1975 by EMI Music Publ. Ltd.; p. 29; in G major
!! NOTE:  The D.S. has been fully encoded.
**kern	**kern	**kern	**kern
*Ivox	*Ivox	*Ivox	*Ivox
*M3/4	*M3/4	*M3/4	*M3/4
*G:	*G:	*G:	*G:
4GG	4D	4D	4B
=1	=1	=1	=1
2GG	2D	[2.G	2B
4GG	4D	.	4B
=2	=2	=2	=2
4GG	4D	4G]	4B
4r	4r	4D	4r
4r	4r	4G	4r
=3	=3	=3	=3
4r	4r	[2.B	4r
4G	4B	.	4e
4G	4B	.	4e-
=4	=4	=4	=4
2G	2B	2B]	2d
8GG	8D	8D	8B
8GG	8D	8G	8B
=5	=5	=5	=5
2GG	2D	2B	2d
8GG	8D	8D	8B
8GG	8D	8G	8B
=6	=6	=6	=6
2GG	2D	2B	2d
8GG	8D	8G	8B
8GG	8G	8B	8d
=7	=7	=7	=7
{2.G	[2.B	[2.d	{2.e
=8	=8	=8	=8
2.G#}	2.B]	2.d]	2.fn}
=9	=9	=9	=9
2A	2c	2d	2f#
4D	4B	4G#	4fn
=10	=10	=10	=10
2.D	2.c	2.A	2.f#
=11	=11	=11	=11
2F#	2A	2B	2d#
4BB	4A	4F#	4d#
=12	=12	=12	=12
2.E	2.B	2.G	2.e
=13	=13	=13	=13
2AA	2A	2F#	2c#
4AA	4G	4E	4c#
=14	=14	=14	=14
2AA	2G	2B	2c#
4E	4G	4B-	4c#
=15	=15	=15	=15
{2D	{2F#	2.A	2.c
4E-	4G	.	.
=16	=16	=16	=16
2D}	2F#}	2A	2c
4GG	4D	4D	4B
=17	=17	=17	=17
2GG	2D	[2.G	2B
4GG	4D	.	4B
=18	=18	=18	=18
4GG	4D	4G]	4B
4r	4r	4D	4r
4r	4r	4G	4r
=19	=19	=19	=19
4r	4r	[2.B	4r
4G	4B	.	4e
4G	4B	.	4e-
=20	=20	=20	=20
2G	2B	2B]	2d
8GG	8D	8D	8B
8GG	8D	8G	8B
=21	=21	=21	=21
2GG	2D	2B	2d
8GG	8D	8D	8B
8GG	8D	8G	8B
=22	=22	=22	=22
2GG	2D	2B	2d
8D	8G	8G	8B
8D	8G	8B	8d
=23	=23	=23	=23
{2.B	{2.A	2.d	{2.fn
=24	=24	=24	=24
2E}	2G#}	2d	2e}
4E	4G#	4B	4e
=25	=25	=25	=25
2AA	2B	2d	2e
4AA	4A	4c	4e
=26	=26	=26	=26
2AA	2B	2d	2e
4C	4A	4c	4e-
=27	=27	=27	=27
2D	2G	2c	2e-
4D	4G	4B	4d
=28	=28	=28	=28
2D	2G	2B	2d
4D	4G	4D	4B
=29	=29	=29	=29
2D	2F#	2A	2c
4D	4F#	4D	4c
=30	=30	=30	=30
2D	2F#	2B	2d
4AA	4F#	4D	4c
=31	=31	=31	=31
[2.GG	[2.D	[2.G	[2.B
=32	=32	=32	=32
4GG]	4D]	4G]	4B]
4r	4r	4r	4r
4r	4r	4r	4r
=33	=33	=33	=33
2.C	2.G	2.e	2.g
=34	=34	=34	=34
2.C	2.G	2.c	2.e
=35	=35	=35	=35
4C	4E	4G	4c
[2C	[2G	[2c	[2e
=36	=36	=36	=36
4C]	4G]	4c]	4e]
4C	4G	4B	4e
4C	4G	4c	4e
=37	=37	=37	=37
2BB	2G	2d	2f
4D	4B	4G	4f
=38	=38	=38	=38
2G	2B	2d#	2g
4G	4B	4G	4d#
=39	=39	=39	=39
4G	4c	4e	4e
[2E	[2G	[2c	[2g
=40	=40	=40	=40
4E]	4G]	4c]	4g]
4r	{4A	4r	4r
4r	4A-}	4r	4r
=41	=41	=41	=41
2.C	2.G	2.e	2.g
=42	=42	=42	=42
2.C	2.G	2.c	2.e
=43	=43	=43	=43
4C	4E	4G	4c
[2C	[2G	[2c	[2e
=44	=44	=44	=44
4C]	4G]	4c]	4e]
4C	4G	4B	4e
4C	4G	4c	4e
=45	=45	=45	=45
2G	2B	2d	2f
4D	4B	4G	4f
=46	=46	=46	=46
2G	2B	2e	2g
4GG	4B	4G	4f
=47	=47	=47	=47
[2.C	[2.G	[2.c	[2.e
=48	=48	=48	=48
4C]	4G]	4c]	4e]
4r	4r	4r	4r
4GG	4D	4D	4B
=49	=49	=49	=49
2GG	2D	[2.G	2B
4GG	4D	.	4B
=50	=50	=50	=50
4GG	4D	4G]	4B
4r	4r	4D	4r
4r	4r	4G	4r
=51	=51	=51	=51
4r	4r	[2.B	4r
4G	4B	.	4e
4G	4B	.	4e-
=52	=52	=52	=52
2G	2B	2B]	2d
8GG	8D	8D	8B
8GG	8D	8G	8B
=53	=53	=53	=53
2GG	2D	2B	2d
8GG	8D	8D	8B
8GG	8D	8G	8B
=54	=54	=54	=54
2GG	2D	2B	2d
8GG	8D	8G	8B
8GG	8G	8B	8d
=55	=55	=55	=55
{2.G	[2.B	[2.d	{2.e
=56	=56	=56	=56
2.G#}	2.B]	2.d]	2.fn}
=57	=57	=57	=57
2A	2c	2d	2f#
4D	4B	4G#	4fn
=58	=58	=58	=58
2.D	2.c	2.A	2.f#
=59	=59	=59	=59
2F#	2A	2B	2d#
4BB	4A	4F#	4d#
=60	=60	=60	=60
2.E	2.B	2.G	2.e
=61	=61	=61	=61
2AA	2A	2F#	2c#
4AA	4G	4E	4c#
=62	=62	=62	=62
2AA	2G	2B	2c#
4E	4G	4B-	4c#
=63	=63	=63	=63
{2D	{2F#	2.A	2.c
4E-	4G	.	.
=64	=64	=64	=64
2D}	2F#}	2A	2c
4GG	4D	4D	4B
=65	=65	=65	=65
2GG	2D	[2.G	2B
4GG	4D	.	4B
=66	=66	=66	=66
4GG	4D	4G]	4B
4r	4r	4D	4r
4r	4r	4G	4r
=67	=67	=67	=67
4r	4r	[2.B	4r
4G	4B	.	4e
4G	4B	.	4e-
=68	=68	=68	=68
2G	2B	2B]	2d
8GG	8D	8D	8B
8GG	8D	8G	8B
=69	=69	=69	=69
2GG	2D	2B	2d
8GG	8D	8D	8B
8GG	8D	8G	8B
=70	=70	=70	=70
2GG	2D	2B	2d
8D	8G	8G	8B
8D	8G	8B	8d
=71	=71	=71	=71
{2.B	{2.A	2.d	{2.fn
=72	=72	=72	=72
2E}	2G#}	2d	2e}
4E	4G#	4B	4e
=73	=73	=73	=73
2AA	2B	2d	2e
4AA	4A	4c	4e
=74	=74	=74	=74
2AA	2B	2d	2e
4C	4A	4c	4e-
=75	=75	=75	=75
2D	2G	2c	2e-
4D	4G	4B	4d
=76	=76	=76	=76
2D	2G	2B	2d
4D	4G	4D	4B
=77	=77	=77	=77
2D	2F#	2A	2c
4D	4F#	4D	4c
=78	=78	=78	=78
2D	2F#	2B	2d
4AA	4F#	4D	4c
=79	=79	=79	=79
[2.GG	[2.D	[2.G	[2.B
=80	=80	=80	=80
4GG]	4D]	4G]	4B]
4r	4r	4r	4r
4r	4r	4r	4r
==	==	==	==
*-	*-	*-	*-
